public/assets/vectors/Logo.svg

<svg width="140" height="32" viewBox="0 0 140 32" fill="none" xmlns="http://www.w3.org/2000/svg">
<g clip-path="url(#clip0)">
<path d="M36.23 29.06C34.46 29.06 33.45 27.21 33.36 25.67C33.14 22.86 36.63 16 39.69 16C40.2473 15.9909 40.8007 16.0952 41.3164 16.3067C41.8321 16.5181 42.2995 16.8323 42.69 17.23C43.18 16.57 43.69 15.78 44.33 14.99L44.24 14.81C44.2781 14.7473 44.3307 14.6946 44.3933 14.6563C44.4559 14.618 44.5268 14.5953 44.6 14.59C45.35 14.59 46.99 14.86 46.99 15.78C46.8445 16.9444 46.5452 18.0843 46.1 19.17C45.1386 21.8728 44.5858 24.704 44.46 27.57C44.46 27.74 44.6 28.71 44.73 28.71C46 28.71 51 21.32 52 20C52.09 20.13 51.69 21.05 51.73 21.1C52.09 21.1 51.73 21.49 52 21.58L51.91 22.42C50.45 25.05 47.13 30.33 44.78 30.33C44.3127 30.3003 43.8567 30.1742 43.4406 29.9595C43.0245 29.7448 42.6574 29.4463 42.3624 29.0827C42.0674 28.7191 41.8509 28.2984 41.7266 27.847C41.6022 27.3956 41.5728 26.9234 41.64 26.46C41.6824 24.7651 41.9514 23.0835 42.44 21.46C41.24 23.17 37.87 29.06 36.23 29.06ZM41.59 18.64C41.4928 18.4874 41.3639 18.3575 41.2121 18.2591C41.0602 18.1608 40.889 18.0963 40.71 18.07C40.3983 18.1133 40.1135 18.27 39.91 18.51C38.09 20.18 36.1 24.14 36.1 26.51L36.19 26.82C37.92 24.31 39.91 21.19 41.59 18.64Z" fill="#00B5AD"/>
<path d="M53.3199 21.72C53.9399 20.09 55.9299 15.96 58.5399 15.87C60.9799 15.87 61.7699 19.26 61.5999 20.87C61.5499 21.36 61.5099 21.49 61.5099 21.75V21.8C62.5451 21.2051 63.6864 20.8179 64.8699 20.66C65.0193 20.6406 65.1705 20.6406 65.3199 20.66C65.4499 20.66 65.5799 20.83 65.7099 20.88H65.7599C65.7099 21.02 65.5799 21.02 65.5399 21.1V21.15H65.4499H65.3199L65.4499 21.33L65.1899 21.41V21.55C63.7015 22.1654 62.2942 22.9613 60.9999 23.92C60.0305 26.8566 58.1929 29.43 55.7299 31.3C55.2456 31.5856 54.701 31.7534 54.1399 31.79H53.9599C52.4499 31.79 52.1399 31.26 51.1299 30.69L50.9999 30.51C50.9999 30.38 51.1799 30.25 51.3099 30.2C51.5799 29.76 51.8399 29.28 52.1999 28.8L52.1099 28.88L51.8399 28.58V28.67C51.9299 28.8 51.9799 28.8 51.9799 28.88L51.9299 28.93C51.3028 28.792 50.7398 28.4484 50.3303 27.9538C49.9208 27.4592 49.6884 26.8419 49.6699 26.2C49.7287 25.251 49.8794 24.3099 50.1199 23.39C50.8799 19.39 54.1999 11 54.9999 8.22C55.0576 7.9967 55.0252 7.75971 54.9099 7.56C55.5411 7.70551 56.1522 7.92713 56.7299 8.22C57.7899 8.83 55.8899 13.76 55.7299 14.29C54.7578 16.7087 53.9526 19.1912 53.3199 21.72ZM52.1699 28.8C52.1699 28.75 52.1699 28.71 52.2599 28.67C53.8481 26.5249 55.789 24.6651 57.9999 23.17C58.6599 22.07 59.6399 17.45 58.6599 17.5C56.8099 17.5 53.2599 25.5 52.4699 27.5C52.3299 27.81 52.4699 28.07 52.3299 28.38L52.1999 28.47V28.69C52.1999 28.64 52.0199 28.6 51.9799 28.55L52.1699 28.8ZM56.5499 26.6L56.8599 26.2C55.5705 27.3327 54.4132 28.6075 53.4099 30L53.5799 30.09C53.7599 29.95 53.8899 29.91 53.9399 29.73H54.0299C55.0434 28.8391 55.8959 27.7803 56.5499 26.6Z" fill="#00B5AD"/>
<path d="M76.1099 18.77C76.4699 21.23 74.6999 24.97 74.6999 27.83C74.6999 28.27 74.5599 28.93 74.8699 29.24H74.9999C76.3199 28.88 79.9999 22.46 81.1899 20.53L81.3699 20.71L81.4599 20.53C81.5733 20.6487 81.6376 20.8059 81.6399 20.97C81.6021 21.3897 81.5114 21.803 81.3699 22.2L81.4599 22.07V22.2C81.3699 22.55 81.1899 22.82 81.1099 23.12L81.4199 22.73L81.1899 23.12L81.4199 22.9L80.9699 23.61C80.8131 23.8536 80.695 24.1201 80.6199 24.4C79.8199 26.55 77.1699 29.98 75.8799 30.51C75.6599 30.51 75.3999 30.69 75.2199 30.69C75.0399 30.69 74.7299 30.64 74.4699 30.64C74.0199 30.47 72.8699 29.9 72.7399 29.41C72.2255 28.7146 71.9643 27.8642 71.9999 27C71.9999 24 74.1299 19.26 73.5899 18.73C72.0899 19.52 68.6799 26.56 67.5299 28.73C67.4399 28.73 67.3099 28.73 67.1299 28.73C66.6499 28.73 65.9799 28.65 65.6699 28.65C65.0099 28.65 64.8299 28.34 64.3899 28.29C64.1257 27.9867 63.9328 27.6281 63.8255 27.2404C63.7182 26.8528 63.6992 26.446 63.7699 26.05C64.0799 19.32 69.4799 8.46 68.6399 8.55L68.7299 8.33C69.2399 8.37718 69.743 8.48116 70.2299 8.64C72.5799 9.43 69.4799 16.29 68.8599 17.43C67.8669 19.9456 67.1949 22.5763 66.8599 25.26C67.8399 23 70.9999 17 73.2799 17C73.8999 17 75.9399 17.58 76.1099 18.77Z" fill="#00B5AD"/>
<path d="M89.6601 20.79C89.6546 20.9344 89.6058 21.0737 89.5201 21.19H89.6101C89.4204 21.6006 89.2729 22.0295 89.1701 22.47C89.1701 22.47 89.0801 22.56 89.1701 22.56C87.7224 24.9852 85.9152 27.1768 83.8101 29.06C83.2458 29.4065 82.6094 29.6186 81.9501 29.68C81.0998 29.5204 80.3347 29.0614 79.7936 28.3864C79.2524 27.7113 78.9709 26.8647 79.0001 26C79.1301 23.06 81.1201 18.66 81.4801 17.78L81.6501 17.65C82.1222 17.6084 82.5962 17.5917 83.0701 17.6C83.198 17.612 83.3211 17.6546 83.429 17.7243C83.5369 17.7939 83.6265 17.8885 83.6901 18C83.8021 18.279 83.8466 18.5805 83.8201 18.88C83.0701 22.26 81.4301 25.88 81.8201 27.94C81.8201 28.07 81.9101 28.11 82.0401 28.11C83.4201 28.2 86.4701 23.63 89.4401 19.93L89.6601 19.76C89.636 20.1029 89.636 20.4471 89.6601 20.79ZM83.1101 16.13L82.8401 16H82.7501C82.6201 16 82.3101 15.56 82.3101 15.47C82.3418 15.1276 82.4545 14.7976 82.6388 14.5072C82.8231 14.2168 83.0737 13.9744 83.3701 13.8C83.598 13.7177 83.8379 13.6738 84.0801 13.67C84.2602 13.68 84.4361 13.7279 84.5964 13.8106C84.7567 13.8933 84.8977 14.009 85.0101 14.15L85.1401 14.63C85.15 14.6592 85.15 14.6908 85.1401 14.72C85.1401 15.2 84.1401 15.64 83.7601 15.95L83.0601 16.22L83.1101 16.13Z" fill="#00B5AD"/>
<path d="M98.2901 19.61C98.2375 19.7018 98.2067 19.8044 98.2 19.91C98.1232 20.1289 98.019 20.3372 97.8901 20.53V20.75H97.9801L98.0001 21C97.8446 21.1566 97.7371 21.3544 97.6901 21.57C97.7801 21.48 97.8201 21.26 98.0001 21.09V21.22C98.0001 21.48 96.9401 23.11 96.7601 23.55C97.0201 23.2 97.2401 22.85 97.5101 22.49C97.5101 22.67 97.2901 22.8 97.2401 22.93L97.38 23.07C97.2434 23.2312 97.1229 23.4054 97.02 23.59C96.7752 23.9412 96.5547 24.3087 96.3601 24.69L96.2301 24.74L96.3101 24.87H96.1401L96.0001 25.1C95.8701 25.24 95.8201 25.41 95.6501 25.5C95.2891 26.0964 94.8881 26.6677 94.45 27.21C93.33 28.62 92.0001 30.86 90.0001 30.86C89.8373 30.8801 89.6728 30.8801 89.5101 30.86C88.6988 30.6879 87.9778 30.2269 87.4811 29.5628C86.9844 28.8987 86.7459 28.0768 86.8101 27.25C86.8201 21.85 89.3901 16 91.0001 11C91.3379 9.71164 91.7656 8.44854 92.2801 7.22H92.3701C92.9001 7.35 94.01 7.43 94.45 8.22C94.98 9.36 94.01 14.22 91.84 19.08C90.73 21.94 89.7101 24.8 89.7101 27.57C89.6366 28.2146 89.7367 28.8671 90.0001 29.46H90.1801C92.6068 26.8959 94.827 24.144 96.8201 21.23C97.2542 20.4696 97.7562 19.75 98.3201 19.08V19.3C98.3292 19.4043 98.3191 19.5094 98.2901 19.61Z" fill="#00B5AD"/>
<path d="M98.51 29.06C96.74 29.06 95.72 27.21 95.63 25.67C95.41 22.86 98.91 16 102 16C102.557 15.9932 103.11 16.0986 103.625 16.3099C104.14 16.5212 104.608 16.8341 105 17.23C105.48 16.57 106 15.78 106.63 14.99L106.55 14.81C106.586 14.7475 106.637 14.6947 106.698 14.6563C106.759 14.618 106.828 14.5952 106.9 14.59C107.65 14.59 109.29 14.86 109.29 15.78C109.145 16.9444 108.845 18.0843 108.4 19.17C107.442 21.8733 106.892 24.7045 106.77 27.57C106.77 27.74 106.9 28.71 107.03 28.71C108.36 28.71 113.32 21.32 114.29 19.96C114.38 20.09 113.98 21.01 114.03 21.06C114.38 21.06 114.03 21.45 114.29 21.54L114.2 22.38C112.74 25.01 109.42 30.29 107.08 30.29C106.673 30.259 106.275 30.161 105.9 30C105.238 29.6748 104.691 29.1544 104.333 28.509C103.976 27.8635 103.824 27.124 103.9 26.39C103.942 24.6951 104.211 23.0135 104.7 21.39C103.51 23.17 100.15 29.06 98.51 29.06ZM103.86 18.64C103.764 18.4865 103.635 18.3559 103.483 18.2574C103.331 18.1589 103.159 18.095 102.98 18.07C102.668 18.1133 102.384 18.27 102.18 18.51C100.37 20.18 98.37 24.14 98.37 26.51L98.46 26.82C100.19 24.31 102.18 21.19 103.86 18.64Z" fill="#00B5AD"/>
<path d="M113.51 27.48H113.69L113.42 27.83V27.88L114 27.35C114 27.48 114 27.48 114.09 27.53L114.26 27.31L114.35 27.44C114.26 27.44 114.17 27.75 114.09 27.83L114.35 27.57L114.48 27.75L113.56 29.15L113.64 29.33C114.48 29.33 116.03 28.49 116.03 27.57C116.03 26.16 113.16 23.04 113.16 20.23C113.16 17.72 116.43 14.77 119 14.77C119.53 14.77 121.74 16.49 121.74 17.02V17.15C121.48 17.59 120.86 19.65 120.2 19.65C119.84 19.65 119.8 19.52 119.53 19.39C119.536 19.0199 119.58 18.6513 119.66 18.29C119.8 17.59 120.02 17.29 119.4 17.06C118.07 17.06 115.95 18.73 115.95 20.06C115.95 22.17 118.82 24.72 118.82 27.27C118.82 29.27 115.82 30.97 114 30.97C113.25 30.97 111.92 29.97 111.92 29.16C111.92 28.35 113.29 27.52 113.51 27.48Z" fill="#00B5AD"/>
<path d="M133.7 18.77C134.05 21.23 132.28 24.97 132.28 27.83C132.28 28.27 132.15 28.93 132.46 29.24H132.59C133.92 28.88 137.59 22.46 138.79 20.53L138.96 20.71L139.05 20.53C139.163 20.6487 139.228 20.8059 139.23 20.97C139.205 21.388 139.128 21.8012 139 22.2L139.09 22.07V22.2C139 22.55 138.83 22.82 138.74 23.12L139.05 22.73L138.83 23.12L139.05 22.9L138.6 23.61C138.443 23.8536 138.325 24.1201 138.25 24.4C137.45 26.55 134.8 29.98 133.51 30.51C133.29 30.51 133.03 30.69 132.85 30.69C132.67 30.69 132.36 30.64 132.1 30.64C131.65 30.47 130.5 29.9 130.37 29.41C129.855 28.6972 129.604 27.8275 129.66 26.95C129.66 23.95 131.79 19.21 131.26 18.68C129.75 19.47 126.34 26.51 125.19 28.68C125.1 28.68 124.97 28.68 124.79 28.68C124.31 28.68 123.64 28.6 123.33 28.6C122.67 28.6 122.49 28.29 122.05 28.24C121.786 27.9367 121.593 27.5781 121.486 27.1904C121.378 26.8028 121.359 26.396 121.43 26C121.74 19.27 127.14 8.41 126.3 8.5L126.39 8.28C126.9 8.32718 127.403 8.43116 127.89 8.59C130.24 9.38 127.14 16.24 126.52 17.38C125.527 19.8956 124.855 22.5263 124.52 25.21C125.45 22.97 128.59 16.94 130.89 16.94C131.48 17 133.52 17.58 133.7 18.77Z" fill="#00B5AD"/>
<path d="M2.68 4.05V6.7H0C0.00528645 5.99361 0.290294 5.3181 0.792606 4.82141C1.29492 4.32472 1.97359 4.04733 2.68 4.05ZM0 10.84V10.05C0.00528645 9.34361 0.290294 8.6681 0.792606 8.17141C1.29492 7.67472 1.97359 7.39733 2.68 7.4V13.5C1.97267 13.5 1.29402 13.2204 0.79199 12.7221C0.289963 12.2239 0.00527857 11.5473 0 10.84H0ZM3.66 4.05C4.36997 4.05263 5.05011 4.33584 5.55214 4.83786C6.05416 5.33989 6.33737 6.02003 6.34 6.73V10.86C6.33209 11.5647 6.04592 12.2376 5.5439 12.7321C5.04187 13.2267 4.36469 13.5027 3.66 13.5V4.05Z" fill="#FF4D4F"/>
<path d="M7.61011 10.82V1.44H10.2901V13.5C9.58014 13.4974 8.9 13.2142 8.39797 12.7121C7.89594 12.2101 7.61274 11.53 7.61011 10.82ZM11.0901 4.05H13.7701C13.7675 4.75997 13.4843 5.44011 12.9822 5.94214C12.4802 6.44417 11.8001 6.72737 11.0901 6.73V4.05Z" fill="#FF4D4F"/>
<path d="M14.5801 10.82V1.44H17.2601V13.5C16.5501 13.4974 15.87 13.2142 15.3679 12.7121C14.8659 12.2101 14.5827 11.53 14.5801 10.82ZM18.0601 4.05H20.7401C20.7374 4.75997 20.4542 5.44011 19.9522 5.94214C19.4502 6.44417 18.77 6.72737 18.0601 6.73V4.05Z" fill="#FF4D4F"/>
<path d="M24.0899 4.05V6.7H21.4099C21.4152 5.99361 21.7002 5.3181 22.2025 4.82141C22.7048 4.32472 23.3835 4.04733 24.0899 4.05ZM21.4099 10.84V10.05C21.4152 9.34361 21.7002 8.6681 22.2025 8.17141C22.7048 7.67472 23.3835 7.39733 24.0899 7.4V13.5C23.3826 13.5 22.7039 13.2204 22.2019 12.7221C21.6999 12.2239 21.4152 11.5473 21.4099 10.84ZM25.0699 4.05C25.7799 4.05263 26.46 4.33584 26.962 4.83786C27.4641 5.33989 27.7473 6.02003 27.7499 6.73V10.86C27.742 11.5647 27.4558 12.2376 26.9538 12.7321C26.4518 13.2267 25.7746 13.5027 25.0699 13.5V4.05Z" fill="#FF4D4F"/>
<path d="M29 10.82V0H31.7V13.5C31.3467 13.5013 30.9967 13.433 30.6698 13.2991C30.3429 13.1651 30.0457 12.9681 29.7949 12.7192C29.5442 12.4703 29.345 12.1745 29.2086 11.8487C29.0722 11.5228 29.0013 11.1733 29 10.82ZM32.66 4.05C33.0115 4.04604 33.3603 4.11152 33.6864 4.24267C34.0125 4.37383 34.3095 4.56809 34.5603 4.81429C34.8112 5.0605 35.0109 5.35382 35.1482 5.67741C35.2854 6.00101 35.3574 6.34852 35.36 6.7V10.82C35.3574 11.53 35.0742 12.2101 34.5721 12.7121C34.0701 13.2142 33.39 13.4974 32.68 13.5L32.66 4.05Z" fill="#FF4D4F"/>
<path d="M36.45 10.82V6.7C36.4552 5.99361 36.7402 5.3181 37.2426 4.82141C37.7449 4.32472 38.4235 4.04733 39.13 4.05V13.5C38.42 13.4974 37.7398 13.2142 37.2378 12.7121C36.7358 12.2101 36.4526 11.53 36.45 10.82ZM40.11 4.05C40.8156 4.04995 41.4927 4.32819 41.9945 4.82432C42.4962 5.32044 42.7821 5.99443 42.79 6.7V10.82C42.7873 11.53 42.5041 12.2101 42.0021 12.7121C41.5001 13.2142 40.8199 13.4974 40.11 13.5V4.05Z" fill="#FF4D4F"/>
<path d="M44 11V4H46.68V13.63C45.977 13.6327 45.3013 13.3581 44.7996 12.8657C44.2978 12.3733 44.0105 11.7029 44 11ZM47.66 4H50.34V14.87C50.3374 15.58 50.0542 16.2601 49.5521 16.7621C49.0501 17.2642 48.37 17.5474 47.66 17.55V4Z" fill="#FF4D4F"/>
</g>
<defs>
<clipPath id="clip0">
<rect width="139.23" height="31.79" fill="white"/>
</clipPath>
</defs>
</svg>

<svg xmlns="http://www.w3.org/2000/svg" viewBox="0 0 139.23 31.79"><defs><style>.cls-1{fill:#40e0d0;}.cls-2{fill:#fc7575;}</style></defs><g id="Layer_2" data-name="Layer 2"><g id="Layer_1-2" data-name="Layer 1"><path class="cls-1" d="M36.23,29.06c-1.77,0-2.78-1.85-2.87-3.39C33.14,22.86,36.63,16,39.69,16a4.11,4.11,0,0,1,3,1.23c.49-.66,1-1.45,1.64-2.24l-.09-.18a.46.46,0,0,1,.36-.22c.75,0,2.39.27,2.39,1.19a13.27,13.27,0,0,1-.89,3.39,28.84,28.84,0,0,0-1.64,8.4c0,.17.14,1.14.27,1.14C46,28.71,51,21.32,52,20c.09.13-.31,1.05-.27,1.1.36,0,0,.39.27.48l-.09.84c-1.46,2.63-4.78,7.91-7.13,7.91a3.39,3.39,0,0,1-3.14-3.87,19,19,0,0,1,.8-5h0C41.24,23.17,37.87,29.06,36.23,29.06Zm5.36-10.42a1.26,1.26,0,0,0-.88-.57,1.28,1.28,0,0,0-.8.44c-1.82,1.67-3.81,5.63-3.81,8l.09.31C37.92,24.31,39.91,21.19,41.59,18.64Z"/><path class="cls-1" d="M53.32,21.72v0c.62-1.63,2.61-5.76,5.22-5.85,2.44,0,3.23,3.39,3.06,5-.05.49-.09.62-.09.88v.05a9.18,9.18,0,0,1,3.36-1.14,1.75,1.75,0,0,1,.45,0c.13,0,.26.17.39.22l.05,0c-.05.14-.18.14-.22.22l0,.05s-.09,0-.09,0h-.13l.13.18-.26.08,0,.14h0v0A19.66,19.66,0,0,0,61,23.92a15.28,15.28,0,0,1-5.27,7.38,3.59,3.59,0,0,1-1.59.49h-.18c-1.51,0-1.82-.53-2.83-1.1L51,30.51c0-.13.18-.26.31-.31.27-.44.53-.92.89-1.4l-.09.08-.27-.3v.09c.09.13.14.13.14.21l-.05.05a2.88,2.88,0,0,1-2.26-2.73,14.7,14.7,0,0,1,.45-2.81C50.88,19.39,54.2,11,55,8.22a.88.88,0,0,0-.09-.66,8,8,0,0,1,1.82.66c1.06.61-.84,5.54-1,6.07A57.06,57.06,0,0,0,53.32,21.72ZM52.17,28.8c0-.05,0-.09.09-.13A23.57,23.57,0,0,1,58,23.17c.66-1.1,1.64-5.72.66-5.67-1.85,0-5.4,8-6.19,10-.14.31,0,.57-.14.88l-.13.09,0,.22c0-.05-.18-.09-.22-.14Zm4.38-2.2.31-.4A22.79,22.79,0,0,0,53.41,30l.17.09c.18-.14.31-.18.36-.36v0l.09,0A11.75,11.75,0,0,0,56.55,26.6Z"/><path class="cls-1" d="M76.11,18.77c.36,2.46-1.41,6.2-1.41,9.06,0,.44-.14,1.1.17,1.41H75c1.32-.36,5-6.78,6.19-8.71l.18.18.09-.18a.65.65,0,0,1,.18.44,5,5,0,0,1-.27,1.23l.09-.13v.13c-.09.35-.27.62-.35.92l.31-.39-.23.39.23-.22-.45.71a2.8,2.8,0,0,0-.35.79c-.8,2.15-3.45,5.58-4.74,6.11-.22,0-.48.18-.66.18s-.49-.05-.75-.05c-.45-.17-1.6-.74-1.73-1.23A3.79,3.79,0,0,1,72,27c0-3,2.13-7.74,1.59-8.27-1.5.79-4.91,7.83-6.06,10-.09,0-.22,0-.4,0-.48,0-1.15-.08-1.46-.08-.66,0-.84-.31-1.28-.36a2.69,2.69,0,0,1-.62-2.24c.31-6.73,5.71-17.59,4.87-17.5l.09-.22a6.88,6.88,0,0,1,1.5.31c2.35.79-.75,7.65-1.37,8.79a32.18,32.18,0,0,0-2,7.83C67.84,23,71,17,73.28,17,73.9,17,75.94,17.58,76.11,18.77Z"/><path class="cls-1" d="M89.66,20.79a.72.72,0,0,1-.14.4l.09,0a6.66,6.66,0,0,0-.44,1.28s-.09.09,0,.09a27.93,27.93,0,0,1-5.36,6.5,4.32,4.32,0,0,1-1.86.62A3.62,3.62,0,0,1,79,26c.13-2.94,2.12-7.34,2.48-8.22l.17-.13a13.48,13.48,0,0,1,1.42-.05.8.8,0,0,1,.62.4,1.91,1.91,0,0,1,.13.88c-.75,3.38-2.39,7-2,9.06,0,.13.09.17.22.17,1.38.09,4.43-4.48,7.4-8.18l.22-.17A7.35,7.35,0,0,0,89.66,20.79Zm-6.55-4.66L82.84,16h-.09c-.13,0-.44-.44-.44-.53a2.17,2.17,0,0,1,1.06-1.67,2.19,2.19,0,0,1,.71-.13,1.28,1.28,0,0,1,.93.48l.13.48a.14.14,0,0,1,0,.09c0,.48-1,.92-1.38,1.23l-.7.27Z"/><path class="cls-1" d="M98.29,19.61a.69.69,0,0,0-.09.3,2.76,2.76,0,0,1-.31.62l0,.22.09,0v0L98,21a1.16,1.16,0,0,0-.31.57c.09-.09.13-.31.31-.48v.13c0,.26-1.06,1.89-1.24,2.33.26-.35.48-.7.75-1.06,0,.18-.22.31-.27.44l.14.14a3.25,3.25,0,0,0-.36.52,9.37,9.37,0,0,0-.66,1.1l-.13.05.08.13-.17,0L96,25.1c-.13.14-.18.31-.35.4a15.46,15.46,0,0,1-1.2,1.71C93.33,28.62,92,30.86,90,30.86a2,2,0,0,1-.49,0,3.42,3.42,0,0,1-2.7-3.61C86.82,21.85,89.39,16,91,11a28.5,28.5,0,0,1,1.28-3.78l.09,0c.53.13,1.64.21,2.08,1,.53,1.14-.44,6-2.61,10.86-1.11,2.86-2.13,5.72-2.13,8.49A3.64,3.64,0,0,0,90,29.46h.18a67,67,0,0,0,6.64-8.23,14.52,14.52,0,0,1,1.5-2.15v.22A.85.85,0,0,1,98.29,19.61Z"/><path class="cls-1" d="M98.51,29.06c-1.77,0-2.79-1.85-2.88-3.39C95.41,22.86,98.91,16,102,16a4.15,4.15,0,0,1,3,1.23c.48-.66,1-1.45,1.63-2.24l-.08-.18a.44.44,0,0,1,.35-.22c.75,0,2.39.27,2.39,1.19a13.27,13.27,0,0,1-.89,3.39,28.83,28.83,0,0,0-1.63,8.4c0,.17.13,1.14.26,1.14,1.33,0,6.29-7.39,7.26-8.75.09.13-.31,1.05-.26,1.1.35,0,0,.39.26.48l-.09.84c-1.46,2.63-4.78,7.91-7.12,7.91A3.7,3.7,0,0,1,105.9,30a3.61,3.61,0,0,1-2-3.61,19,19,0,0,1,.8-5h0C103.51,23.17,100.15,29.06,98.51,29.06Zm5.35-10.42a1.24,1.24,0,0,0-.88-.57,1.28,1.28,0,0,0-.8.44c-1.81,1.67-3.81,5.63-3.81,8l.09.31C100.19,24.31,102.18,21.19,103.86,18.64Z"/><path class="cls-1" d="M113.51,27.48l.18,0-.27.35v.05l.58-.53c0,.13,0,.13.09.18l.17-.22.09.13c-.09,0-.18.31-.26.39l.26-.26.13.18-.92,1.4.08.18c.84,0,2.39-.84,2.39-1.76,0-1.41-2.87-4.53-2.87-7.34,0-2.51,3.27-5.46,5.84-5.46.53,0,2.74,1.72,2.74,2.25v.13c-.26.44-.88,2.5-1.54,2.5-.36,0-.4-.13-.67-.26a5.48,5.48,0,0,1,.13-1.1c.14-.7.36-1-.26-1.23-1.33,0-3.45,1.67-3.45,3,0,2.11,2.87,4.66,2.87,7.21,0,2-3,3.7-4.82,3.7-.75,0-2.08-1-2.08-1.81S113.29,27.52,113.51,27.48Z"/><path class="cls-1" d="M133.7,18.77c.35,2.46-1.42,6.2-1.42,9.06,0,.44-.13,1.1.18,1.41h.13c1.33-.36,5-6.78,6.2-8.71l.17.18.09-.18a.65.65,0,0,1,.18.44A5,5,0,0,1,139,22.2l.09-.13v.13c-.09.35-.26.62-.35.92l.31-.39-.22.39.22-.22-.45.71a2.8,2.8,0,0,0-.35.79c-.8,2.15-3.45,5.58-4.74,6.11-.22,0-.48.18-.66.18s-.49-.05-.75-.05c-.45-.17-1.6-.74-1.73-1.23a3.79,3.79,0,0,1-.71-2.46c0-3,2.13-7.74,1.6-8.27-1.51.79-4.92,7.83-6.07,10-.09,0-.22,0-.4,0-.48,0-1.15-.08-1.46-.08-.66,0-.84-.31-1.28-.36a2.69,2.69,0,0,1-.62-2.24c.31-6.73,5.71-17.59,4.87-17.5l.09-.22a6.88,6.88,0,0,1,1.5.31c2.35.79-.75,7.65-1.37,8.79a32.18,32.18,0,0,0-2,7.83c.93-2.24,4.07-8.27,6.37-8.27C131.48,17,133.52,17.58,133.7,18.77Z"/><path class="cls-2" d="M2.68,4.05V6.7H0A2.67,2.67,0,0,1,2.68,4.05ZM0,10.84v-.79A2.67,2.67,0,0,1,2.68,7.4v6.1A2.68,2.68,0,0,1,0,10.84ZM3.66,4.05A2.69,2.69,0,0,1,6.34,6.73v4.13A2.67,2.67,0,0,1,3.66,13.5Z"/><path class="cls-2" d="M7.61,10.82V1.44h2.68V13.5A2.69,2.69,0,0,1,7.61,10.82Zm3.48-6.77h2.68a2.69,2.69,0,0,1-2.68,2.68Z"/><path class="cls-2" d="M14.58,10.82V1.44h2.68V13.5A2.69,2.69,0,0,1,14.58,10.82Zm3.48-6.77h2.68a2.69,2.69,0,0,1-2.68,2.68Z"/><path class="cls-2" d="M24.09,4.05V6.7H21.41A2.67,2.67,0,0,1,24.09,4.05Zm-2.68,6.79v-.79A2.67,2.67,0,0,1,24.09,7.4v6.1A2.68,2.68,0,0,1,21.41,10.84Zm3.66-6.79a2.69,2.69,0,0,1,2.68,2.68v4.13a2.67,2.67,0,0,1-2.68,2.64Z"/><path class="cls-2" d="M29,10.82V0H31.7V13.5A2.69,2.69,0,0,1,29,10.82Zm3.66-6.77A2.67,2.67,0,0,1,35.36,6.7v4.12a2.69,2.69,0,0,1-2.68,2.68Z"/><path class="cls-2" d="M36.45,10.82V6.7a2.67,2.67,0,0,1,2.68-2.65V13.5A2.69,2.69,0,0,1,36.45,10.82Zm3.66-6.77A2.68,2.68,0,0,1,42.79,6.7v4.12a2.69,2.69,0,0,1-2.68,2.68Z"/><path class="cls-2" d="M44,11v-7h2.68v9.63A2.67,2.67,0,0,1,44,11Zm3.66-7h2.68V14.87a2.69,2.69,0,0,1-2.68,2.68Z"/></g></g></svg>
